X:08
T:Miss Gordon Hornpipe. JBu.08
O:England,South Yorkshire
S:Joshua Burnett’s MS,c1835,S.Yorkshire
M:C|
L:1/8
Q:1/2=90
R:.hornpipe
Z:vmp.R.Greig.2010
K:Bb
dc|B2B2BFdc|B2B2BFed|c2edc2Bc|defdB2dc|
B2B2BFdc|B2B2BFed|c2f>dc2fA|[E4A4][B2D2]:|
|:ba|g2g2gabg|f2f2f2ed|c2cB BAGA|Bdfb B2bg|
g2g2gabg|f2f2f2ed|dcBA BAGA|B2d2B2:|

